Numix/22/devices/network-vpn.svg

<?xml version="1.0" encoding="UTF-8" standalone="no"?>
<!-- Created with Inkscape (http://www.inkscape.org/) -->

<svg
   xmlns:dc="http://purl.org/dc/elements/1.1/"
   xmlns:cc="http://creativecommons.org/ns#"
   xmlns:rdf="http://www.w3.org/1999/02/22-rdf-syntax-ns#"
   xmlns:svg="http://www.w3.org/2000/svg"
   xmlns="http://www.w3.org/2000/svg"
   xmlns:sodipodi="http://sodipodi.sourceforge.net/DTD/sodipodi-0.dtd"
   xmlns:inkscape="http://www.inkscape.org/namespaces/inkscape"
   id="svg7384"
   height="22"
   width="22"
   version="1.1"
   inkscape:version="0.91 r"
   sodipodi:docname="network-vpn.svg">
  <defs
     id="defs12" />
  <sodipodi:namedview
     pagecolor="#ffffff"
     bordercolor="#666666"
     borderopacity="1"
     objecttolerance="10"
     gridtolerance="10"
     guidetolerance="10"
     inkscape:pageopacity="0"
     inkscape:pageshadow="2"
     inkscape:window-width="1366"
     inkscape:window-height="747"
     id="namedview10"
     showgrid="true"
     inkscape:zoom="14.75"
     inkscape:cx="0.52221922"
     inkscape:cy="9.1218976"
     inkscape:window-x="0"
     inkscape:window-y="21"
     inkscape:window-maximized="1"
     inkscape:current-layer="svg7384">
    <inkscape:grid
       type="xygrid"
       id="grid3342" />
  </sodipodi:namedview>
  <metadata
     id="metadata90">
    <rdf:RDF>
      <cc:Work
         rdf:about="">
        <dc:format>image/svg+xml</dc:format>
        <dc:type
           rdf:resource="http://purl.org/dc/dcmitype/StillImage" />
        <dc:title>Gnome Symbolic Icon Theme</dc:title>
      </cc:Work>
    </rdf:RDF>
  </metadata>
  <title
     id="title9167">Gnome Symbolic Icon Theme</title>
  <path
     style="color:#bebebe;text-indent:0;text-transform:none;block-progression:tb;fill:#919fa9;fill-opacity:1"
     d="m 9.5,13.5 0,4.5 -7.5,0 0,3 18,0 0,-3 -7.5,0 0,-4.5 -3,0 z"
     id="path12679-6"
     inkscape:connector-curvature="0" />
  <path
     inkscape:connector-curvature="0"
     d="M 11,1.5 C 9.527334,1.5 8,2.431455 8,4.49997 l 0,3 0,1.5 0.75,0 5.25,0 0,0 0,-1.5 0,-3 C 14,2.4614171 12.472666,1.5 11,1.5 Z m 0,1.49997 c 0.846195,0 1.5,0.65382 1.5,1.5 l 0,1.5 -3,0 0,-1.5 c 0,-0.84618 0.653805,-1.5 1.5,-1.5 z"
     style="color:#bebebe;text-indent:0;text-transform:none;block-progression:tb;fill:#bebebe"
     id="path13314"
     sodipodi:nodetypes="zsccccccszssccss" />
  <path
     style="color:#bebebe;fill:#ecd14c;fill-opacity:1"
     d="M 5.169491,6.1694915 C 5.405194,5.933789 6,6 6,6 L 16,6 C 16,6 16.594797,5.933797 16.8305,6.1695 17.066202,6.4052025 17,7 17,7 L 17,15 5,15 5,7 C 5,7 4.93379,6.405194 5.169491,6.1694915 Z"
     id="rect13312"
     inkscape:connector-curvature="0"
     sodipodi:nodetypes="zccsccccz" />
  <g
     id="g4185"
     transform="translate(-49.474513,-26.353237)">
    <g
       id="g4161"
       style="fill:none;stroke:#ffffff">
      <g
         id="g4163"
         transform="translate(-38.38147,-1006.1003)"
         style="stroke-width:0.5" />
      <g
         id="g4169"
         transform="translate(-39.59798,-1004.3622)"
         style="stroke-width:0.40000001" />
    </g>
    <g
       id="g4175"
       transform="translate(0,-1004.3622)" />
  </g>
  <rect
     style="opacity:1;fill:#e9d988;fill-opacity:1;stroke:none;stroke-width:1;stroke-linecap:round;stroke-linejoin:round;stroke-miterlimit:4;stroke-dasharray:none;stroke-dashoffset:0;stroke-opacity:1"
     id="rect4147"
     width="2.5"
     height="9"
     x="13"
     y="6" />
</svg>

<!-- Created with Inkscape (http://www.inkscape.org/) -->
<svg xmlns="http://www.w3.org/2000/svg" viewBox="0 0 22 22">
 <path d="m 9.5 13.5 0 4.5 -7.5 0 0 3 18 0 0 -3 -7.5 0 0 -4.5 -3 0 z" style="fill:#919fa9;fill-opacity:1;color:#bebebe"/>
 <path d="m 11 1.5 c -1.473 0 -3 0.931 -3 3 l 0 3 0 1.5 0.75 0 5.25 0 0 0 0 -1.5 0 -3 c 0 -2.039 -1.527 -3 -3 -3 m 0 1.5 c 0.846 0 1.5 0.654 1.5 1.5 l 0 1.5 -3 0 0 -1.5 c 0 -0.846 0.654 -1.5 1.5 -1.5 z" style="fill:#bebebe;color:#bebebe"/>
 <path d="m 5.169 6.169 c 0.236 -0.236 0.831 -0.169 0.831 -0.169 l 10 0 c 0 0 0.595 -0.066 0.831 0.17 0.236 0.236 0.169 0.83 0.169 0.83 l 0 8 -12 0 0 -8 c 0 0 -0.066 -0.595 0.169 -0.831" style="fill:#ecd14c;fill-opacity:1;color:#bebebe"/>
 <rect width="2.5" height="9" x="13" y="6" style="fill:#e9d988;opacity:1;fill-opacity:1;stroke:none"/>
</svg>
